X: 111
T: No_6_A_Spirit_Woman_Gives_a_Name.krn
N: Derived from No_6_A_Spirit_Woman_Gives_a_Name.krn
%%abc-version 2.0
%%abcx-abcm2ps-target-version 5.9.1 (29 Sep 2008)
%%abc-creator hum2abc beta
%%abcx-conversion-date 2019/03/15 08:35:45
%%humdrum-veritas 2666865279
%%humdrum-veritas-data 395631743
%%linebreak <none>
%%barnumbers 0
L: 1/8
M: 2/4
K: B clef=bass
[K:clef=bass][M:2/4]CC C3/B,/ ||  
[M:3/4]B,2B,/ z/ C B,C ||  
[M:2/4]B,4- | 
B,2(B,3/G,/) | 
F,4 ||  
[M:3/4]F,4z2 | 
B,B,B,2-B,3/G,/ ||  
[M:2/4]F,2F,2 | 
z G, F,G, | 
F,4- | 
F,2F,D, ||  
[M:3/4]B,,2B,,3z ||  
[M:2/4]C,C, C,3/B,,/ ||  
[M:3/4]B,,2B,, z/ C,/ B,,C, | 
B,,4B,,G,, | 
F,,2F,,2z2 |]  



